X: 10972
U: Q=!diminuendo(!
U: q=!diminuendo)!
M: 2/4
L: 1/16
K: F
(cB) |\
QA2qF2 QB2qd2 | .c2f2- f2(ed) | (dc)(cB) (BA)(AG) | G2 F4 H|]
(ef) |\
g2g2 (f2e2) | a2a2 g2f2 | b2b2 a2gf | gfed cdef |\
g2ag f2e2 | a2ba | g2f2 | b2ag f2ed | c2^c2 d2"^D.C."B2 |]
c2 |\
fefg _a2f2 | g2e2 c2de | fefg _a2f2  | g2c2 b2g2 |\
fefg _a2ag | f2f_e _d2dc | _B2c_d _e2e2 | _A4 "^D.C."z2 |]


